Themes/OneUI/assets/svg/italic.svg

<?xml version="1.0" encoding="UTF-8" standalone="no"?>
<!-- Created with Vectornator (http://vectornator.io/) -->

<svg
   height="22.729044"
   stroke-miterlimit="10"
   style="clip-rule:evenodd;fill-rule:nonzero;stroke-linecap:round;stroke-linejoin:round"
   version="1.1"
   viewBox="0 0 11.85502 22.729044"
   width="11.85502"
   xml:space="preserve"
   id="svg1081"
   sodipodi:docname="italic.svg"
   xmlns:inkscape="http://www.inkscape.org/namespaces/inkscape"
   xmlns:sodipodi="http://sodipodi.sourceforge.net/DTD/sodipodi-0.dtd"
   xmlns="http://www.w3.org/2000/svg"
   xmlns:svg="http://www.w3.org/2000/svg"
   xmlns:vectornator="http://vectornator.io"><sodipodi:namedview
   id="namedview1083"
   pagecolor="#ffffff"
   bordercolor="#666666"
   borderopacity="1.0"
   inkscape:showpageshadow="2"
   inkscape:pageopacity="0.0"
   inkscape:pagecheckerboard="0"
   inkscape:deskcolor="#d1d1d1" />
<defs
   id="defs1076" />
<g
   id="Untitled"
   vectornator:layerName="Untitled"
   transform="translate(-6.07248,-0.635456)">
<path
   d="m 16.8161,2.85828 c 0.6135,0 1.1114,-0.49791 1.1114,-1.11141 0,-0.6135 -0.4979,-1.111414 -1.1114,-1.111414 h -5.9275 c -0.6135,0 -1.11142,0.497914 -1.11142,1.111414 0,0.6135 0.49792,1.11141 1.11142,1.11141 h 1.6982 L 9.13552,21.1417 H 7.18389 c -0.6135,0 -1.11141,0.4979 -1.11141,1.1114 0,0.6135 0.49791,1.1114 1.11141,1.1114 h 5.92751 c 0.6135,0 1.1114,-0.4979 1.1114,-1.1114 0,-0.6135 -0.4979,-1.1114 -1.1114,-1.1114 h -1.713 L 14.8482,2.85828 Z"
   fill="#252525"
   fill-rule="nonzero"
   opacity="1"
   stroke="none"
   id="path1078" />
</g>
</svg>

<?xml version="1.0" encoding="UTF-8" standalone="no"?>
<!DOCTYPE svg PUBLIC "-//W3C//DTD SVG 1.1//EN" "http://www.w3.org/Graphics/SVG/1.1/DTD/svg11.dtd">
<!-- Created with Vectornator (http://vectornator.io/) -->
<svg height="100%" stroke-miterlimit="10" style="fill-rule:nonzero;clip-rule:evenodd;stroke-linecap:round;stroke-linejoin:round;" version="1.1" viewBox="0 0 24 24" width="100%" xml:space="preserve" xmlns="http://www.w3.org/2000/svg" xmlns:vectornator="http://vectornator.io" xmlns:xlink="http://www.w3.org/1999/xlink">
<defs/>
<g id="Untitled" vectornator:layerName="Untitled">
<path d="M16.8161 2.85828C17.4296 2.85828 17.9275 2.36037 17.9275 1.74687C17.9275 1.13337 17.4296 0.635456 16.8161 0.635456L10.8886 0.635456C10.2751 0.635456 9.77718 1.13337 9.77718 1.74687C9.77718 2.36037 10.2751 2.85828 10.8886 2.85828L12.5868 2.85828L9.13552 21.1417L7.18389 21.1417C6.57039 21.1417 6.07248 21.6396 6.07248 22.2531C6.07248 22.8666 6.57039 23.3645 7.18389 23.3645L13.1114 23.3645C13.7249 23.3645 14.2228 22.8666 14.2228 22.2531C14.2228 21.6396 13.7249 21.1417 13.1114 21.1417L11.3984 21.1417L14.8482 2.85828L16.8161 2.85828Z" fill="#252525" fill-rule="nonzero" opacity="1" stroke="none"/>
</g>
</svg>
